images_sukapura_svg/cmd/sc_copy.svg

<svg viewBox="0 0 16 16" xmlns="http://www.w3.org/2000/svg" xmlns:xlink="http://www.w3.org/1999/xlink"><linearGradient id="a" gradientUnits="userSpaceOnUse" x1="11" x2="12.35894" y1="7.000001" y2="5.689751"><stop offset="0" stop-color="#fff"/><stop offset=".63984942" stop-color="#f1f1f1"/><stop offset="1" stop-color="#d5d5d5"/></linearGradient><radialGradient id="b" cx="13" cy="6.227273" gradientTransform="matrix(1.75 0 0 1.7499999 -9.75 -5.897727)" gradientUnits="userSpaceOnUse" r="4"><stop offset="0" stop-color="#d7d7d7"/><stop offset=".5" stop-color="#f7f7f7"/><stop offset="1" stop-color="#fff"/></radialGradient>






     /&amp;amp;gt;
 <g transform="translate(-4 -3)"><path d="m6 4h4l4 3.3821361v7.6178639h-8z" fill="url(#b)"/><path d="m6 3c-.554 0-1 .446-1 1v11c0 .554.446 1 1 1h8c.554 0 1-.446 1-1v-7.9980469l-4.001953-4.0019531zm0 1h4v3.0019531c0 .5527773.44527.9980469.998047.9980469h3.001953v7h-8zm5 .4160156 2.583984 2.5839844h-2.583984z" fill="#a1a1a1"/><path d="m11 4.414063 2.585938 2.585938h-2.585938z" fill="url(#a)"/></g><path d="m6 4h4l4 3.3821361v7.6178639h-8z" fill="url(#b)"/><path d="m6 3c-.554 0-1 .446-1 1v11c0 .554.446 1 1 1h8c.554 0 1-.446 1-1v-7.9980469l-4.001953-4.0019531zm0 1h4v3.0019531c0 .5527773.44527.9980469.998047.9980469h3.001953v7h-8zm5 .4160156 2.583984 2.5839844h-2.583984z" fill="#a1a1a1"/><path d="m11 4.414063 2.585938 2.585938h-2.585938z" fill="url(#a)"/></svg>

<?xml version="1.0" encoding="UTF-8" standalone="no"?>
<svg
   xmlns:dc="http://purl.org/dc/elements/1.1/"
   xmlns:cc="http://creativecommons.org/ns#"
   xmlns:rdf="http://www.w3.org/1999/02/22-rdf-syntax-ns#"
   xmlns:svg="http://www.w3.org/2000/svg"
   xmlns="http://www.w3.org/2000/svg"
   xmlns:xlink="http://www.w3.org/1999/xlink"
   xmlns:sodipodi="http://sodipodi.sourceforge.net/DTD/sodipodi-0.dtd"
   xmlns:inkscape="http://www.inkscape.org/namespaces/inkscape"
   viewBox="0 0 16 16"
   version="1.1"
   id="svg18"
   sodipodi:docname="sc_copy.svg"
   inkscape:version="0.92.3 (unknown)"
   inkscape:export-filename="/home/rizmut/Dokumen/Rizmut/Github/libreoffice-style-colibrex/images_colibrex/cmd/sc_copy.png"
   inkscape:export-xdpi="96"
   inkscape:export-ydpi="96"><metadata
   id="metadata24">
  <rdf:RDF>
    <cc:Work
       rdf:about="">
      <dc:format>image/svg+xml</dc:format>
      <dc:type
         rdf:resource="http://purl.org/dc/dcmitype/StillImage" />
    </cc:Work>
  </rdf:RDF>
</metadata>
<defs
   id="defs22">
  <linearGradient
     inkscape:collect="always"
     id="linearGradient870">
    <stop
       style="stop-color:#d7d7d7;stop-opacity:1"
       offset="0"
       id="stop866" />
    <stop
       id="stop874"
       offset="0.5"
       style="stop-color:#f7f7f7;stop-opacity:1" />
    <stop
       style="stop-color:#ffffff;stop-opacity:1"
       offset="1"
       id="stop868" />
  </linearGradient>
  <linearGradient
     gradientTransform="translate(-7,-3.999999)"
     inkscape:collect="always"
     xlink:href="#linearGradient882"
     id="linearGradient884"
     x1="18"
     y1="11"
     x2="19.35894"
     y2="9.6897497"
     gradientUnits="userSpaceOnUse" />
  <linearGradient
     inkscape:collect="always"
     id="linearGradient882">
    <stop
       style="stop-color:#ffffff;stop-opacity:1;"
       offset="0"
       id="stop878" />
    <stop
       id="stop886"
       offset="0.63984942"
       style="stop-color:#f1f1f1;stop-opacity:1" />
    <stop
       style="stop-color:#d5d5d5;stop-opacity:1"
       offset="1"
       id="stop880" />
  </linearGradient>
  <radialGradient
     inkscape:collect="always"
     xlink:href="#linearGradient870"
     id="radialGradient879"
     cx="13"
     cy="6.2272725"
     fx="13"
     fy="6.2272725"
     r="4"
     gradientTransform="matrix(1.75,0,0,1.7499999,-9.7500002,-5.8977265)"
     gradientUnits="userSpaceOnUse" />
  <radialGradient
     inkscape:collect="always"
     xlink:href="#linearGradient870"
     id="radialGradient906"
     gradientUnits="userSpaceOnUse"
     gradientTransform="matrix(1.75,0,0,1.7499999,-9.7500002,-5.8977265)"
     cx="13"
     cy="6.2272725"
     fx="13"
     fy="6.2272725"
     r="4" />
  <linearGradient
     inkscape:collect="always"
     xlink:href="#linearGradient882"
     id="linearGradient908"
     gradientUnits="userSpaceOnUse"
     gradientTransform="translate(-7,-3.999999)"
     x1="18"
     y1="11"
     x2="19.35894"
     y2="9.6897497" />
</defs>
<sodipodi:namedview
   pagecolor="#ffffff"
   bordercolor="#666666"
   borderopacity="1"
   objecttolerance="10"
   gridtolerance="10"
   guidetolerance="10"
   inkscape:pageopacity="0"
   inkscape:pageshadow="2"
   inkscape:window-width="1366"
   inkscape:window-height="706"
   id="namedview20"
   showgrid="true"
   inkscape:zoom="16"
   inkscape:cx="-3.3700701"
   inkscape:cy="6.4299632"
   inkscape:window-x="0"
   inkscape:window-y="0"
   inkscape:window-maximized="1"
   inkscape:current-layer="svg18">
  <inkscape:grid
     type="xygrid"
     id="grid834" />
</sodipodi:namedview>






     /&amp;gt;
 <g
   id="g904"
   transform="translate(-4,-3)">
  <path
     d="m 6,4 h 4 l 4,3.3821361 V 15 H 6 Z"
     id="path898"
     style="fill:url(#radialGradient906);fill-opacity:1"
     inkscape:connector-curvature="0"
     sodipodi:nodetypes="cccccc" />
  <path
     style="fill:#a1a1a1;fill-opacity:1"
     d="M 6,3 C 5.446,3 5,3.446 5,4 v 11 c 0,0.554 0.446,1 1,1 h 8 c 0.554,0 1,-0.446 1,-1 V 7.0019531 L 10.998047,3 Z m 0,1 h 4 V 7.0019531 C 10,7.5547304 10.44527,8 10.998047,8 H 14 v 7 H 6 Z M 11,4.4160156 13.583984,7 H 11 Z"
     id="path900"
     inkscape:connector-curvature="0" />
  <path
     style="fill:url(#linearGradient908);fill-opacity:1;stroke:none;stroke-width:1px;stroke-linecap:butt;stroke-linejoin:miter;stroke-opacity:1"
     d="m 11,4.414063 2.585938,2.585938 H 11 Z"
     id="path902"
     inkscape:connector-curvature="0" />
</g>
<g
   id="g896">
  <path
     sodipodi:nodetypes="cccccc"
     inkscape:connector-curvature="0"
     style="fill:url(#radialGradient879);fill-opacity:1"
     id="path12"
     d="m 6,4 h 4 l 4,3.3821361 V 15 H 6 Z" />
  <path
     id="path10"
     d="M 6 3 C 5.446 3 5 3.446 5 4 L 5 15 C 5 15.554 5.446 16 6 16 L 14 16 C 14.554 16 15 15.554 15 15 L 15 7.0019531 L 10.998047 3 L 6 3 z M 6 4 L 10 4 L 10 7.0019531 C 10 7.5547304 10.44527 8 10.998047 8 L 14 8 L 14 15 L 6 15 L 6 4 z M 11 4.4160156 L 13.583984 7 L 11 7 L 11 4.4160156 z "
     style="fill:#a1a1a1;fill-opacity:1" />
  <path
     inkscape:connector-curvature="0"
     id="path876"
     d="m 11,4.414063 2.585938,2.585938 H 11 Z"
     style="fill:url(#linearGradient884);fill-opacity:1;stroke:none;stroke-width:1px;stroke-linecap:butt;stroke-linejoin:miter;stroke-opacity:1" />
</g>
</svg>
